X: 1403
T: An Súisín Bán
R: hornpipe
M: 4/4
K: Gmajor
(3GAB|:c>EE>D E>FG>E|D>E (3GAB c3 z/ A/|B>AG>E D2 (3EFG|
A2 A>B A>DG>A|B>AG>E D>ED>E|1 G2 G>A G2 (3GAB:|2 G2 G>A G2 B>d||
|:e2 e>d e>fg>e|d>B (3GAB c3 z/ A/|B>AG>E D2 (3EFG|
A2 A>B A>DG>A|B>AG>E D>ED>E|1 G2 G>A G2 (3Bcd:|2 G2 G>A G2||

